X: 1
T: Connie The Soldier
S: Angelina Carberry & Martin Quinn
M: 6/8
L: 1/8
R: jig
K: Dmix
DEG A2A|AdB cAG|EGG EGG|EcA GEA|
DE/F/G ~A3|AdB cAG|EGG EAG|1 ~E2D D2A,:|2 ~E2D Dde||
|:fdd ede|fd^c d2e|fed ~c3|BAG A2g|
fdd ed^c|ded cAG|EGG EAG|1 ~E2D Dde:|2 ~E2D D2A,||
